!!!COM:	Bach, Johann Sebastian
!!!CDT:	1685/02/21/-1750/07/28/
!!!OTL@@DE:	Wer wei&szlig;, wie nahe mir mein Ende
!!!SCT:	BWV 166/6
!!!PC#:	204
!!!AGN:	chorale
**kern	**kern	**kern	**kern
*ICvox	*ICvox	*ICvox	*ICvox
*Ibass	*Itenor	*Ialto	*Isoprn
*I"Bass	*I"Tenor	*I"Alto	*I"Soprano
*>[A,A,B]	*>[A,A,B]	*>[A,A,B]	*>[A,A,B]
*>norep[A,B]	*>norep[A,B]	*>norep[A,B]	*>norep[A,B]
*>A	*>A	*>A	*>A
*clefF4	*clefGv2	*clefG2	*clefG2
*k[b-e-]	*k[b-e-]	*k[b-e-]	*k[b-e-]
*g:	*g:	*g:	*g:
*M4/4	*M4/4	*M4/4	*M4/4
*met(c)	*met(c)	*met(c)	*met(c)
*MM100	*MM100	*MM100	*MM100
4GG	4G	4B-	4d
=1	=1	=1	=1
4G	4B-	4d	4g
4F#	4A	4d	4a
4G	4G	4d	4b-
4D	4F#	8dL	4a
.	.	8cJ	.
=2	=2	=2	=2
4E-	4G	4B-	4g
4C	4c	4e-	4a
2D	2A	2d	2f#
=3	=3	=3	=3
4DD;	4F#;	4A;	4d;
4D	4A	4d	4fnX
4GG	4B-	4d	4f
4AA	4F	4c	4e-
=4	=4	=4	=4
4BB-	4F	4B-	4d
4E-	8GL	8B-L	4g
.	8AJ	8cJ	.
4D	4B-	4d	4g
4D	4A	4d	4f#
=5	=5	=5	=5
2.GG;	2.B-;	2.d;	2.g;
=:|!	=:|!	=:|!	=:|!
*>B	*>B	*>B	*>B
4D	4d	4f#	4a
=6	=6	=6	=6
4G	4d	4g	4b-
4A	4c	4fnX	4cc
8B-L	4B-	4f	4dd
8AJ	.	.	.
8GL	4B-	4g	4dd
8FJ	.	.	.
=7	=7	=7	=7
4E-	4B-	4g	4.cc
4F	4A	4f	.
.	.	.	8cc
4BB-;	4d;	4f;	4b-;
4B-	4B-	4f	4dd
=8	=8	=8	=8
4A	4c	4f#	4cc
4G	4d	4g	4b-
8CL	8e-L	8gL	4a
8DJ	16dL	8f#J	.
.	16cJJ	.	.
4E-	8B-L	4g	8gL
.	8cJ	.	8aJ
=9	=9	=9	=9
8DL	4.d	4g	4b-
8CJ	.	.	.
4D	.	4f#	4a
.	8c	.	.
4GG;	4B;	4d;	4g;
==	==	==	==
*-	*-	*-	*-
!!!hum2abc: -Q ''
!!!title: @{PC#}. @{OTL@@DE}
!!!YOR1: 371 vierstimmige Choralges&auml;nge von Johann Sebastian Bach, 
!!!YOR2: 4th ed. by Alfred D&ouml;rffel (Leipzig: Breitkopf und H&auml;rtel, 
!!!YOR2: c.1875). 178 pp. Plate "V.A.10".  reprint: J.S. Bach, 371 Four-Part 
!!!YOR4: Chorales (New York: Associated Music Publishers, Inc., c.1940).
!!!SMS: B&H, 4th ed, Alfred D&ouml;rffel, c.1875, plate V.A.10
!!!EED:  Craig Stuart Sapp
!!!EEV:  2009/05/22
